X:1
T:Title
T:To Zanarkand 
T:Composed by Nobuo Uematsu Arranged by Christopher Huart 
T:From Final Fantasy X 
C:Composer
%%score { 1 | 2 }
L:1/8
Q:1/4=80
M:3/4
K:G
V:1 treble nm="Piano" snm="Pia."
V:2 treble 
V:1
"^Adagio\n""^\n\n""_dim."!8va(! [be']e gb e'[d'f'] | [c'e'g']6 | [ad']!tenuto!d fa d'[c'e'] | %3
 [bd'f']6 | b2 b2 b2 | b2 a3 d' | f4 df | b6 | e'2 e'2 e'2 | e'2 d'2 g'2 |[Q:1/4=85] c'6 | %11
 =fc =fg a!8va)!c |:!mf! [Ge]3 B ef | [Bg]2 f2 e2 | [Fd]3 [Ge] [Acd]2 |1 [GB]6 | [Ge]3 B ef | %17
 [Bg]2 f2 g2 | [Afa]3 [Gg] [Aa]2 | [Bgb]6 :|2 [GB]4 GA || [DEB]2 [EB]2 [EB]2 | [EFB]2 A2 d2 | %23
 [CEG]3 G FD | E3 E Gc |"_cresc." eE Gc eg | a4!8va(! (e'2 | [c'e']2 [bd']2 [ac']2 | [gb]4) g'2 | %29
"_dim." [be'g']6 |!p! [dfb]4 f'2 | !fermata![af']6 |"_cresc." [ca]4 [ae']2 | %33
 ([abe']2 !^!^d'4)!8va)! |!mf! !fermata![FB]4 ([Fdf]2 | [GBf]2 [GBe]2 [FBd]2 | [EA^c]4) [ca]2 | %37
[Q:1/4=80]"_dim." [A^cfa]6 | [^G^c^g]2 e2 c2 | !^![GB]4 f2 | A3 F [EA]2 |"_dim." !fermata![FB]6 | %42
!p! [Ge]3 B ef | (g2 f2 e2) | d3 e d2 | !arpeggio!!fermata![DB]6 | [Ge]3 B ef |"_cresc." g2 f2 g2 | %48
 a3 g a2 |!f! !^![db]6 | [Ge]3 B ef | (!^![Bg]2 !^![Af]2 !^![Ge]2 | [Fd]3) [Ge] [Acd]2 | %53
 [GB]4 [Gg][Aa] |!8va(! [deb]2 b2 b2 | [efb]2 a2 d'2 | [cg]3 g [df]d | !fermata![Be]6!8va)! | z6 | %59
 z6 |:"^Expression"[Q:1/4=85] z6 | z6 | z6 | z6 :: BF B^c !tenuto!dc | Bf ed !tenuto!^cd |1 %66
 ^cA Bd !tenuto!ce | d^c Bc !tenuto!BA :|2 ^ce ab !tenuto!^c'a || !^!d'^c' !^!bc' !^!ba | %70
 fB fg !tenuto!f2- | f4 !tenuto!fg | fA fg !tenuto!f2- | fA B^c de |"_cresc." fe ^cc [Bd][Ae] | %75
!f! !fermata![FBf]4 ([Fdf]2 | [GBf]2 [GBe]2 [GBd]2 | [EA^c]4) [Aca]2 | %78
 !arpeggio!!fermata![A^cfa]6 | [^G^c]4 [e^g]2 |!mf! !arpeggio![^d^g]6 |!f! [FB]4 [Bf]2 | %82
[Q:1/4=80]"_cresc." z6 |!ff! !fermata![e^g^c']4 ^g'2 | (!^![e'^g']2 !^![^d'f']2 !^![^c'e']2 | %85
 !^![b^d']4) [d'b']2 |"_dim." [^d'f'b']6 |!mf![Q:1/4=75] [^A^d^a]2 f2 d2 |"_dim." [A^c]4 ^g2 | %89
 B3 ^G [FB]2 |!p!"_dim." ^C6 | z2 !arpeggio![=F^G^c]4 |] %92
V:2
!ped! [EB]4 D2!ped-up! | [Cc]6 |!ped! [DA]4 C2!ped-up! | [B,B]6 | CE dc ef | [ceg]6 | B,F B^c z2 | %7
 z6 | A,E BA cd | [Ace]6 |!ped! =F,C =FG Ac!ped-up! |!ped! z6!ped-up! |: %12
[K:bass]!ped!!8va(! E,B, EF GA!ped-up! |!ped! C G2 F E!8va)!C,!ped-up! | %14
!ped! D,,A,, D,E, F,C,!ped-up! |1!ped! G,,D, G,A, B,D!ped-up! |!ped!!8va(! E,B, EF GA!ped-up! | %17
!ped! C G2 F E!8va)!C,!ped-up! | D,,A,, D,E, F,C, |!ped! G,,D, G,A, B,D!ped-up! :|2 %20
!ped! G,,D, G,A, B,F,!ped-up! ||!ped! C,G, CG, B,G,!ped-up! |!ped! D,6!ped-up! | %23
!ped! C,E, A,2 [B,,F,]2!ped-up! | C,G, C4 | z6 |[K:treble] A,E AB cd | =F,C =FG Ac | G,D GA Bd | %29
 E,B, EF GB | [Bf]6 | [^cf]6 | [A,E]3 B, CE |[K:bass]!ped! B,4 !^!B,!^!A,!ped-up! | %34
 B,,F, B,^C DF, | G,,D, G,A, B,D, | A,,E, A,B, ^CE, |!ped! F,,^C, F,^G, A,B,!ped-up! | [^C,^G,]6 | %39
!ped! G,,4 [G,D]2!ped-up! | [F,^C]4 [A,E]2 | B,,^D, F,B, ^D2 | [E,B,]6 | [C,CE]6 | [D,DF]6 | %45
 !arpeggio!G,6 | [E,B,]6 | !tenuto![C,CE]2 D2 E2 | !tenuto![D,DF]2 E2 F2 | %49
!ped! G,,D, G,A, B,D!ped-up! |!ped!!8va(! E,B, EF GA!ped-up! |!ped! C,C DE D!8va)!G,,!ped-up! | %52
!ped! D,,A,, D,E, F,C,!ped-up! |!ped! G,,D, G,A, B,F,!ped-up! |!8va(! [Gc]6 | [DA]6!8va)! | %56
!ped! A,,E, G,2 [D,A,]2!ped-up! |!ped! B,,3 ^D,3 | F,3 B,3 | ^D2 !fermata!F2 z2!ped-up! |: %60
!ped! B,,F, !tenuto!B,F, !tenuto!D2!ped-up! |!ped! G,,F, !tenuto!DF, !tenuto!^C2!ped-up! | %62
!ped! A,,E, !tenuto!B,E, !tenuto!^C2!ped-up! |!ped! F,,F, !tenuto!B,F, !tenuto!^CF,!ped-up! :: %64
!ped! B,,F, B,F, D2!ped-up! |!ped! G,,F, DF, ^C2!ped-up! |1!ped! A,,E, B,E, ^C2!ped-up! | %67
!ped! F,,F, B,F, ^CF,!ped-up! :|2!ped! A,,E, B,E, ^C2!ped-up! || [D,,D,]2 [E,,E,]2 [F,,F,]2 | %70
!ped! B,,F, B,F, D2!ped-up! |!ped! G,,F, DF, ^C2!ped-up! |!ped! A,,E, B,E, ^C2!ped-up! | %73
!ped! F,,F, B,F, ^CF,!ped-up! |!ped! D,4 [A,,F,]2!ped-up! |!ped! B,,F, B,^C DF,!ped-up! | %76
 G,,D, G,A, B,D, |!ped! A,,E, A,B, ^CE,!ped-up! |!ped! F,,^C, F,^G, A,B,!ped-up! | %79
!ped! ^C,^G,, E,G,, E,2!ped-up! |!ped! B,^D, B,D, B,D,!ped-up! |!ped! D,F,, D,F,, D,F,,!ped-up! | %82
!ped! ^C,,^G,, ^C,B,,!ped-up! C,/=F,/^G,/B,/ |!ped! [E,^CE]2 C^D E^G,!ped-up! | %84
 [^C,A,^C]E, A,B, CE, |!ped! [^D,B,^D]F, B,^C DF,!ped-up! |!ped! [B,,^G,B,]^D, G,^A, B,G,!ped-up! | %87
!ped! [^D,^A,]6!ped-up! |!ped! A,,4 [A,E]2!ped-up! |!ped! [^G,^D]4 [B,F]2!ped-up! | %90
!ped! ^C,2 =F,2 ^G,2 | ^C6!ped-up! |] %92

